X: 348
T:Gan Ainm Waltz
M:3/4
L:1/4
S:from  Mike Rafferty
R:Waltz
H:Mike wasn't sure where he got this but felt it came from Sean McGlynn,
H:either directly, or through Billy McComisky.
Z:Thomas A. Madden
K:D
d/2e/2|:f A d|(f2 g/2)f/2|e c e|d2 d/2c/2|BG&gt;B|AF A/2F/2|G E/2A/2A/2F/2|
1 D2d/2e/2/:|2 D2 A/2B/2|
|A D E|F2 G/2F/2|E c B|A2 A/2B/2|A E F|G2 c/2B/2|A2&gt;G/2 B|A2 A/2B/2|
A D E|F2 G/2F/2|E c B|A2 (3A/2B/2c/2| ddB|AF A/2F/2|G E/2A/2A/2F/2|1 D2
A/2B/2:|2 D||
<end>
<start>
